svgs/light/circle-ampersand.svg

<svg xmlns="http://www.w3.org/2000/svg" viewBox="0 0 512 512"><!--! Font Awesome Pro 6.3.0 by @fontawesome - https://fontawesome.com License - https://fontawesome.com/license (Commercial License) Copyright 2023 Fonticons, Inc. --><path d="M256 0C114.6 0 0 114.6 0 256s114.6 256 256 256s256-114.6 256-256S397.4 0 256 0zM256 480c-123.5 0-224-100.5-224-224s100.5-224 224-224s224 100.5 224 224S379.5 480 256 480zM329.4 320.5l35.67-50.39c5.094-7.219 3.406-17.2-3.812-22.31c-7.188-5.062-17.16-3.375-22.31 3.812l-31.89 45.06l-50.36-53.7l27.19-21.91C296.7 211.1 304 196.2 304 180.3C304 151.4 279.9 128 250.4 128H229.6C200.1 128 176 151.4 176 180.3c0 15.3 5.875 29.91 16.47 41.05l17.25 18.41L167.1 273.4C152.7 285.2 144 302.9 144 321.9C144 356.1 172.7 384 207.9 384h36.28c25.28 0 48.88-12.06 63.16-32.28l3.217-4.545l29.81 31.78C343.5 382.3 347.8 384 352 384c3.938 0 7.844-1.438 10.94-4.328c6.469-6.047 6.781-16.17 .7187-22.62L329.4 320.5zM208 180.3C208 169.1 217.7 160 229.6 160h20.75C262.3 160 272 169.1 272 180.3c0 6.031-2.844 11.72-8 15.75L234.7 219.6l-19-20.25C210.8 194.1 208 187.3 208 180.3zM281.2 333.2C281.2 333.3 281.2 333.2 281.2 333.2C272.9 344.1 259.1 352 244.2 352H207.9C190.3 352 176 338.5 176 321.9c0-9.031 4.219-17.52 11.81-23.42L231.7 263.1l56.5 60.24L281.2 333.2z"/></svg>

<svg xmlns="http://www.w3.org/2000/svg" viewBox="0 0 512 512"><!-- Font Awesome Pro 6.0.0-alpha2 by @fontawesome - https://fontawesome.com License - https://fontawesome.com/license (Commercial License) --><path d="M329.396 320.516L365.062 270.125C370.156 262.906 368.469 252.922 361.25 247.813C354.062 242.75 344.094 244.438 338.938 251.625L307.051 296.688L256.688 242.984L283.875 221.078C296.656 211.109 304 196.219 304 180.25C304 151.438 279.938 128 250.375 128H229.625C200.062 128 176 151.438 176 180.25C176 195.547 181.875 210.156 192.469 221.297L209.719 239.703L167.969 273.359C152.719 285.203 144 302.875 144 321.859C144 356.125 172.656 384 207.875 384H244.156C269.438 384 293.031 371.938 307.313 351.719L310.529 347.174L340.344 378.953C343.469 382.297 347.75 384 352 384C355.938 384 359.844 382.562 362.938 379.672C369.406 373.625 369.719 363.5 363.656 357.047L329.396 320.516ZM208 180.25C208 169.078 217.688 160 229.625 160H250.375C262.312 160 272 169.078 272 180.25C272 186.281 269.156 191.969 264 196L234.719 219.578L215.719 199.328C210.75 194.078 208 187.312 208 180.25ZM281.188 333.234C281.182 333.244 281.18 333.254 281.174 333.264C272.861 344.988 259.055 352 244.156 352H207.875C190.312 352 176 338.484 176 321.859C176 312.828 180.219 304.344 187.812 298.438L231.688 263.109L288.184 323.348L281.188 333.234ZM256 16C123.451 16 16 123.451 16 256S123.451 496 256 496S496 388.549 496 256S388.549 16 256 16ZM256 464C141.309 464 48 370.691 48 256S141.309 48 256 48S464 141.309 464 256S370.691 464 256 464Z"/></svg>
